Numix-Circle/48x48/apps/valyriatear.svg

<?xml version="1.0" encoding="UTF-8" standalone="no"?>
<svg
   xmlns:dc="http://purl.org/dc/elements/1.1/"
   xmlns:cc="http://creativecommons.org/ns#"
   xmlns:rdf="http://www.w3.org/1999/02/22-rdf-syntax-ns#"
   xmlns:svg="http://www.w3.org/2000/svg"
   xmlns="http://www.w3.org/2000/svg"
   xmlns:xlink="http://www.w3.org/1999/xlink"
   xmlns:sodipodi="http://sodipodi.sourceforge.net/DTD/sodipodi-0.dtd"
   xmlns:inkscape="http://www.inkscape.org/namespaces/inkscape"
   viewBox="0 0 48 48"
   id="svg2"
   version="1.1"
   inkscape:version="0.48.5 r10040"
   width="100%"
   height="100%"
   sodipodi:docname="valyriatear.svg">
  <metadata
     id="metadata69">
    <rdf:RDF>
      <cc:Work
         rdf:about="">
        <dc:format>image/svg+xml</dc:format>
        <dc:type
           rdf:resource="http://purl.org/dc/dcmitype/StillImage" />
      </cc:Work>
    </rdf:RDF>
  </metadata>
  <sodipodi:namedview
     pagecolor="#ffffff"
     bordercolor="#666666"
     borderopacity="1"
     objecttolerance="10"
     gridtolerance="10"
     guidetolerance="10"
     inkscape:pageopacity="0"
     inkscape:pageshadow="2"
     inkscape:window-width="1280"
     inkscape:window-height="998"
     id="namedview67"
     showgrid="false"
     inkscape:zoom="13.906433"
     inkscape:cx="11.13161"
     inkscape:cy="24.920795"
     inkscape:window-x="0"
     inkscape:window-y="0"
     inkscape:window-maximized="1"
     inkscape:current-layer="svg2">
    <inkscape:grid
       type="xygrid"
       id="grid3837" />
  </sodipodi:namedview>
  <defs
     id="defs4">
    <linearGradient
       id="linearGradient3819">
      <stop
         style="stop-color:#a49481;stop-opacity:1;"
         offset="0"
         id="stop3821" />
      <stop
         style="stop-color:#ad9e8d;stop-opacity:1;"
         offset="1"
         id="stop3823" />
    </linearGradient>
    <linearGradient
       id="linearGradient3825">
      <stop
         style="stop-color:#784110;stop-opacity:1;"
         offset="0"
         id="stop3827" />
      <stop
         style="stop-color:#874912;stop-opacity:1;"
         offset="1"
         id="stop3829" />
    </linearGradient>
    <linearGradient
       id="linearGradient3764"
       x1="1"
       x2="47"
       gradientUnits="userSpaceOnUse"
       gradientTransform="matrix(0,-1,1,0,-1.5e-6,47.999998)">
      <stop
         stop-color="#3d3d3d"
         stop-opacity="1"
         id="stop7" />
      <stop
         offset="1"
         stop-color="#474747"
         stop-opacity="1"
         id="stop9" />
    </linearGradient>
    <clipPath
       id="clipPath-501793429">
      <g
         transform="translate(0,-1004.3622)"
         id="g12">
        <path
           d="m -24 13 c 0 1.105 -0.672 2 -1.5 2 -0.828 0 -1.5 -0.895 -1.5 -2 0 -1.105 0.672 -2 1.5 -2 0.828 0 1.5 0.895 1.5 2 z"
           transform="matrix(15.333333,0,0,11.5,414.99999,878.8622)"
           fill="#1890d0"
           id="path14" />
      </g>
    </clipPath>
    <clipPath
       id="clipPath-511268767">
      <g
         transform="translate(0,-1004.3622)"
         id="g17">
        <path
           d="m -24 13 c 0 1.105 -0.672 2 -1.5 2 -0.828 0 -1.5 -0.895 -1.5 -2 0 -1.105 0.672 -2 1.5 -2 0.828 0 1.5 0.895 1.5 2 z"
           transform="matrix(15.333333,0,0,11.5,414.99999,878.8622)"
           fill="#1890d0"
           id="path19" />
      </g>
    </clipPath>
    <clipPath
       clipPathUnits="userSpaceOnUse"
       id="clipPath3029">
      <rect
         style="opacity:0.1;fill:#000000;fill-opacity:1;fill-rule:nonzero;stroke:none"
         id="rect3031"
         width="29"
         height="22"
         x="-11"
         y="9" />
    </clipPath>
    <linearGradient
       inkscape:collect="always"
       xlink:href="#linearGradient3819"
       id="linearGradient3826"
       x1="1"
       y1="24"
       x2="47"
       y2="24"
       gradientUnits="userSpaceOnUse" />
    <linearGradient
       inkscape:collect="always"
       xlink:href="#linearGradient3819"
       id="linearGradient3850"
       gradientUnits="userSpaceOnUse"
       x1="1"
       y1="24"
       x2="47"
       y2="24"
       gradientTransform="translate(-0.05084746,0.12711864)" />
  </defs>
  <g
     id="g21">
    <path
       d="m 36.31 5 c 5.859 4.062 9.688 10.831 9.688 18.5 c 0 12.426 -10.07 22.5 -22.5 22.5 c -7.669 0 -14.438 -3.828 -18.5 -9.688 c 1.037 1.822 2.306 3.499 3.781 4.969 c 4.085 3.712 9.514 5.969 15.469 5.969 c 12.703 0 23 -10.298 23 -23 c 0 -5.954 -2.256 -11.384 -5.969 -15.469 c -1.469 -1.475 -3.147 -2.744 -4.969 -3.781 z m 4.969 3.781 c 3.854 4.113 6.219 9.637 6.219 15.719 c 0 12.703 -10.297 23 -23 23 c -6.081 0 -11.606 -2.364 -15.719 -6.219 c 4.16 4.144 9.883 6.719 16.219 6.719 c 12.703 0 23 -10.298 23 -23 c 0 -6.335 -2.575 -12.06 -6.719 -16.219 z"
       opacity="0.05"
       id="path23" />
    <path
       d="m 41.28 8.781 c 3.712 4.085 5.969 9.514 5.969 15.469 c 0 12.703 -10.297 23 -23 23 c -5.954 0 -11.384 -2.256 -15.469 -5.969 c 4.113 3.854 9.637 6.219 15.719 6.219 c 12.703 0 23 -10.298 23 -23 c 0 -6.081 -2.364 -11.606 -6.219 -15.719 z"
       opacity="0.1"
       id="path25" />
    <path
       d="m 31.25 2.375 c 8.615 3.154 14.75 11.417 14.75 21.13 c 0 12.426 -10.07 22.5 -22.5 22.5 c -9.708 0 -17.971 -6.135 -21.12 -14.75 a 23 23 0 0 0 44.875 -7 a 23 23 0 0 0 -16 -21.875 z"
       opacity="0.2"
       id="path27" />
  </g>
  <g
     id="g29"
     style="fill:url(#linearGradient3826);fill-opacity:1"
     transform="matrix(0,-1,1,0,0,48)">
    <path
       d="m 23.949153,1.1271186 c 12.703,0 23,10.2970004 23,23.0000004 0,12.703 -10.297,23 -23,23 -12.703,0 -23.00000046,-10.297 -23.00000046,-23 0,-12.703 10.29700046,-23.0000004 23.00000046,-23.0000004 z"
       id="path31"
       style="fill:url(#linearGradient3850);fill-opacity:1"
       inkscape:connector-curvature="0" />
  </g>
  <path
     id="path3861"
     d="m 22.718682,12.062088 c -0.278387,-0.0098 -0.56809,0.0041 -0.84375,0.03125 -1.102641,0.108794 -2.14852,0.504715 -3.0625,1 -1.82796,0.990571 -3.418262,2.453289 -4.71875,4.09375 -1.300488,1.640461 -2.31392,3.431848 -2.8125,5.28125 -0.24929,0.924701 -0.398764,1.87709 -0.1875,2.9375 0.172309,0.864882 0.706747,1.807262 1.46875,2.46875 0.120615,0.104705 0.242184,0.192382 0.375,0.28125 0.05688,0.03806 0.09722,0.09023 0.15625,0.125 l 0.03125,-0.03125 c 0.344805,0.191299 0.733989,0.3125 1.15625,0.3125 1.326887,0 2.40625,-1.079363 2.40625,-2.40625 -0.263595,-0.557915 -0.412829,-1.166204 -0.6875,-1.71875 0.0051,0.02558 -0.02156,-0.259767 0.09375,-0.6875 0.230625,-0.855465 0.972484,-2.22021 1.9375,-3.4375 0.965016,-1.21729 2.178121,-2.313702 3.15625,-2.84375 0.941476,-0.510186 1.319507,-0.448323 1.53125,-0.34375 0.02297,0.124057 0.03813,0.543029 -0.125,1.1875 -0.33475,1.322499 -1.308366,3.351313 -2.40625,5.4375 -1.097884,2.086187 -2.313328,4.247889 -3.09375,6.34375 -0.390211,1.047931 -0.685791,2.065943 -0.71875,3.21875 -0.03296,1.152807 0.299087,2.595167 1.3125,3.59375 l 0.03125,0.03125 0.03125,0.03125 c 0.751881,0.692754 2.086021,0.86337 2.84375,0.65625 0.757729,-0.20712 1.194418,-0.551505 1.59375,-0.875 0.798664,-0.646989 1.470395,-1.3862 2.21875,-2.3125 1.49671,-1.8526 3.242575,-4.315074 5.15625,-6.71875 1.913675,-2.403676 3.977114,-4.729423 5.875,-6.1875 1.897886,-1.458077 3.3385,-1.880896 4.34375,-1.59375 0.180531,0.04148 0.369379,0.0625 0.5625,0.0625 1.379439,0 2.5,-1.120561 2.5,-2.5 0,-1.104696 -0.69335,-2.045501 -1.6875,-2.375 -0.09381,-0.0268 -0.187706,-0.03969 -0.28125,-0.0625 -3.098331,-0.75559 -6.043634,0.636871 -8.46875,2.5 -2.498335,1.91938 -4.760463,4.493036 -6.78125,7.03125 -0.331312,0.416145 -0.5258,0.682802 -0.84375,1.09375 1.061548,-2.022231 2.126834,-4.064687 2.65625,-6.15625 0.280979,-1.110062 0.429582,-2.253511 0.15625,-3.5 -0.273332,-1.246489 -1.143044,-2.53978 -2.34375,-3.25 l -0.03125,-0.03125 -0.03125,0 c -0.804922,-0.44733 -1.633589,-0.658019 -2.46875,-0.6875 z"
     style="font-size:medium;font-style:normal;font-variant:normal;font-weight:normal;font-stretch:normal;text-indent:0;text-align:start;text-decoration:none;line-height:normal;letter-spacing:normal;word-spacing:normal;text-transform:none;direction:ltr;block-progression:tb;writing-mode:lr-tb;text-anchor:start;baseline-shift:baseline;color:#000000;fill:#000000;fill-opacity:1;stroke:none;stroke-width:5;marker:none;visibility:visible;display:inline;overflow:visible;enable-background:accumulate;font-family:Sans;-inkscape-font-specification:Sans;opacity:0.1"
     inkscape:connector-curvature="0" />
  <g
     id="g33" />
  <g
     id="g63">
    <path
       d="m 40.03 7.531 c 3.712 4.084 5.969 9.514 5.969 15.469 0 12.703 -10.297 23 -23 23 c -5.954 0 -11.384 -2.256 -15.469 -5.969 4.178 4.291 10.01 6.969 16.469 6.969 c 12.703 0 23 -10.298 23 -23 0 -6.462 -2.677 -12.291 -6.969 -16.469 z"
       opacity="0.1"
       id="path65" />
  </g>
  <path
     style="font-size:medium;font-style:normal;font-variant:normal;font-weight:normal;font-stretch:normal;text-indent:0;text-align:start;text-decoration:none;line-height:normal;letter-spacing:normal;word-spacing:normal;text-transform:none;direction:ltr;block-progression:tb;writing-mode:lr-tb;text-anchor:start;baseline-shift:baseline;color:#000000;fill:#c6b09a;fill-opacity:1;stroke:none;stroke-width:5;marker:none;visibility:visible;display:inline;overflow:visible;enable-background:accumulate;font-family:Sans;-inkscape-font-specification:Sans"
     d="M 21.71875 11.0625 C 21.440363 11.0527 21.15066 11.0666 20.875 11.09375 C 19.772359 11.202544 18.72648 11.598465 17.8125 12.09375 C 15.98454 13.084321 14.394238 14.547039 13.09375 16.1875 C 11.793262 17.827961 10.77983 19.619348 10.28125 21.46875 C 10.03196 22.393451 9.8824862 23.34584 10.09375 24.40625 C 10.266059 25.271132 10.800497 26.213512 11.5625 26.875 C 11.683115 26.979705 11.804684 27.067382 11.9375 27.15625 C 11.99438 27.19431 12.03472 27.24648 12.09375 27.28125 L 12.125 27.25 C 12.469805 27.441299 12.858989 27.5625 13.28125 27.5625 C 14.608137 27.5625 15.6875 26.483137 15.6875 25.15625 C 15.423905 24.598335 15.274671 23.990046 15 23.4375 C 15.0051 23.46308 14.97844 23.177733 15.09375 22.75 C 15.324375 21.894535 16.066234 20.52979 17.03125 19.3125 C 17.996266 18.09521 19.209371 16.998798 20.1875 16.46875 C 21.128976 15.958564 21.507007 16.020427 21.71875 16.125 C 21.74172 16.249057 21.75688 16.668029 21.59375 17.3125 C 21.259 18.634999 20.285384 20.663813 19.1875 22.75 C 18.089616 24.836187 16.874172 26.997889 16.09375 29.09375 C 15.703539 30.141681 15.407959 31.159693 15.375 32.3125 C 15.34204 33.465307 15.674087 34.907667 16.6875 35.90625 L 16.71875 35.9375 L 16.75 35.96875 C 17.501881 36.661504 18.836021 36.83212 19.59375 36.625 C 20.351479 36.41788 20.788168 36.073495 21.1875 35.75 C 21.986164 35.103011 22.657895 34.3638 23.40625 33.4375 C 24.90296 31.5849 26.648825 29.122426 28.5625 26.71875 C 30.476175 24.315074 32.539614 21.989327 34.4375 20.53125 C 36.335386 19.073173 37.776 18.650354 38.78125 18.9375 C 38.961781 18.978984 39.150629 19 39.34375 19 C 40.723189 19 41.84375 17.879439 41.84375 16.5 C 41.84375 15.395304 41.1504 14.454499 40.15625 14.125 C 40.062437 14.098203 39.968544 14.085313 39.875 14.0625 C 36.776669 13.30691 33.831366 14.699371 31.40625 16.5625 C 28.907915 18.48188 26.645787 21.055536 24.625 23.59375 C 24.293688 24.009895 24.0992 24.276552 23.78125 24.6875 C 24.842798 22.665269 25.908084 20.622813 26.4375 18.53125 C 26.718479 17.421188 26.867082 16.277739 26.59375 15.03125 C 26.320418 13.784761 25.450706 12.49147 24.25 11.78125 L 24.21875 11.75 L 24.1875 11.75 C 23.382578 11.30267 22.553911 11.091981 21.71875 11.0625 z "
     id="path3828" />
  <path
     style="font-size:medium;font-style:normal;font-variant:normal;font-weight:normal;font-stretch:normal;text-indent:0;text-align:start;text-decoration:none;line-height:normal;letter-spacing:normal;word-spacing:normal;text-transform:none;direction:ltr;block-progression:tb;writing-mode:lr-tb;text-anchor:start;baseline-shift:baseline;color:#000000;fill:#ffffff;fill-opacity:1;fill-rule:nonzero;stroke:none;stroke-width:1px;marker:none;visibility:visible;display:inline;overflow:visible;enable-background:accumulate;font-family:Sans;-inkscape-font-specification:Sans"
     d="m 21.03125,13.09375 c -0.761126,0.08042 -1.537236,0.346819 -2.28125,0.75 -1.488028,0.806362 -2.927451,2.122558 -4.09375,3.59375 -1.166299,1.471192 -2.046102,3.079423 -2.4375,4.53125 -0.195699,0.725914 -0.28097,1.436484 -0.15625,2.0625 0.12472,0.626016 0.488421,1.193081 1.0625,1.53125 l 0.5,-0.875 c -0.327324,-0.192815 -0.481052,-0.466181 -0.5625,-0.875 -0.08145,-0.408819 -0.0439,-0.93598 0.125,-1.5625 0.337807,-1.25304 1.182045,-2.800942 2.28125,-4.1875 1.099205,-1.386558 2.431938,-2.629493 3.75,-3.34375 1.30584,-0.707634 2.523589,-0.870716 3.5,-0.34375 0.551398,0.326153 0.8449,0.716452 0.96875,1.28125 0.12385,0.564798 0.05657,1.315475 -0.15625,2.15625 -0.425633,1.681549 -1.452806,3.766371 -2.5625,5.875 -1.109694,2.108629 -2.304997,4.227287 -3,6.09375 -0.347501,0.933231 -0.570993,1.797777 -0.59375,2.59375 -0.02276,0.795973 0.16861,1.551661 0.71875,2.09375 l 0.03125,0 0,0.03125 c 0.255963,0.235834 0.661379,0.271518 0.96875,0.1875 0.307371,-0.08402 0.561894,-0.240421 0.84375,-0.46875 0.563713,-0.456657 1.192377,-1.178881 1.90625,-2.0625 C 23.271496,30.389012 25.04348,27.926241 27,25.46875 28.95652,23.011259 31.080684,20.580098 33.21875,18.9375 35.356816,17.294902 37.428936,16.461967 39.3125,17 l 0.28125,-0.96875 c -2.322722,-0.663476 -4.710594,0.358892 -6.96875,2.09375 -2.258156,1.734858 -4.428307,4.234351 -6.40625,6.71875 -1.977943,2.484399 -3.762986,4.962944 -5.15625,6.6875 -0.696632,0.862278 -1.303763,1.544759 -1.75,1.90625 -0.223118,0.180746 -0.417809,0.258784 -0.5,0.28125 -0.304345,-0.311674 -0.454785,-0.707929 -0.4375,-1.3125 0.01766,-0.617556 0.205104,-1.405368 0.53125,-2.28125 0.652293,-1.751764 1.8219,-3.8489 2.9375,-5.96875 1.1156,-2.11985 2.185176,-4.263926 2.65625,-6.125 0.235537,-0.930537 0.329927,-1.801721 0.15625,-2.59375 C 24.482573,14.645471 24.017834,13.954176 23.25,13.5 l -0.03125,0 c -0.684838,-0.380594 -1.426374,-0.486668 -2.1875,-0.40625 z"
     id="path3033"
     inkscape:connector-curvature="0" />
</svg>

<svg xmlns="http://www.w3.org/2000/svg" xmlns:xlink="http://www.w3.org/1999/xlink" viewBox="0 0 48 48">
 <defs>
  <linearGradient id="linearGradient3819">
   <stop style="stop-color:#a49481;stop-opacity:1"/>
   <stop offset="1" style="stop-color:#ad9e8d;stop-opacity:1"/>
  </linearGradient>
  <linearGradient xlink:href="#linearGradient3819" id="linearGradient3826" x1="1" x2="47" gradientUnits="userSpaceOnUse"/>
  <linearGradient xlink:href="#linearGradient3819" id="linearGradient3850" gradientUnits="userSpaceOnUse" x1="1" x2="47" gradientTransform="translate(-0.05084746,0.12711864)"/>
 </defs>
 <g>
  <path d="m 36.31 5 c 5.859 4.062 9.688 10.831 9.688 18.5 c 0 12.426 -10.07 22.5 -22.5 22.5 c -7.669 0 -14.438 -3.828 -18.5 -9.688 c 1.037 1.822 2.306 3.499 3.781 4.969 c 4.085 3.712 9.514 5.969 15.469 5.969 c 12.703 0 23 -10.298 23 -23 c 0 -5.954 -2.256 -11.384 -5.969 -15.469 c -1.469 -1.475 -3.147 -2.744 -4.969 -3.781 z m 4.969 3.781 c 3.854 4.113 6.219 9.637 6.219 15.719 c 0 12.703 -10.297 23 -23 23 c -6.081 0 -11.606 -2.364 -15.719 -6.219 c 4.16 4.144 9.883 6.719 16.219 6.719 c 12.703 0 23 -10.298 23 -23 c 0 -6.335 -2.575 -12.06 -6.719 -16.219 z" style="opacity:0.05"/>
  <path d="m 41.28 8.781 c 3.712 4.085 5.969 9.514 5.969 15.469 c 0 12.703 -10.297 23 -23 23 c -5.954 0 -11.384 -2.256 -15.469 -5.969 c 4.113 3.854 9.637 6.219 15.719 6.219 c 12.703 0 23 -10.298 23 -23 c 0 -6.081 -2.364 -11.606 -6.219 -15.719 z" style="opacity:0.1"/>
  <path d="m 31.25 2.375 c 8.615 3.154 14.75 11.417 14.75 21.13 c 0 12.426 -10.07 22.5 -22.5 22.5 c -9.708 0 -17.971 -6.135 -21.12 -14.75 a 23 23 0 0 0 44.875 -7 a 23 23 0 0 0 -16 -21.875 z" style="opacity:0.2"/>
 </g>
 <g transform="matrix(0,-1,1,0,0,48)" style="fill:url(#linearGradient3826);fill-opacity:1">
  <path d="m 23.949 1.127 c 12.703 0 23 10.297 23 23 0 12.703 -10.297 23 -23 23 -12.703 0 -23 -10.297 -23 -23 0 -12.703 10.297 -23 23 -23 z" style="fill:url(#linearGradient3850)"/>
 </g>
 <path d="m 22.719 12.06 c -0.278 -0.0001 -0.568 0.004 -0.844 0.031 -1.103 0.109 -2.149 0.505 -3.063 1 -1.828 0.991 -3.418 2.453 -4.719 4.094 -1.3 1.64 -2.314 3.432 -2.813 5.281 -0.249 0.925 -0.399 1.877 -0.188 2.938 0.172 0.865 0.707 1.807 1.469 2.469 0.121 0.105 0.242 0.192 0.375 0.281 0.057 0.038 0.097 0.09 0.156 0.125 l 0.031 -0.031 c 0.345 0.191 0.734 0.313 1.156 0.313 1.327 0 2.406 -1.079 2.406 -2.406 -0.264 -0.558 -0.413 -1.166 -0.688 -1.719 0.005 0.026 -0.022 -0.26 0.094 -0.688 0.231 -0.855 0.972 -2.22 1.938 -3.438 0.965 -1.217 2.178 -2.314 3.156 -2.844 0.941 -0.51 1.32 -0.448 1.531 -0.344 0.023 0.124 0.038 0.543 -0.125 1.188 -0.335 1.322 -1.308 3.351 -2.406 5.438 -1.098 2.086 -2.313 4.248 -3.094 6.344 -0.39 1.048 -0.686 2.066 -0.719 3.219 -0.033 1.153 0.299 2.595 1.313 3.594 l 0.031 0.031 0.031 0.031 c 0.752 0.693 2.086 0.863 2.844 0.656 0.758 -0.207 1.194 -0.552 1.594 -0.875 0.799 -0.647 1.47 -1.386 2.219 -2.313 1.497 -1.853 3.243 -4.315 5.156 -6.719 1.914 -2.404 3.977 -4.729 5.875 -6.188 1.898 -1.458 3.338 -1.881 4.344 -1.594 0.181 0.041 0.369 0.063 0.563 0.063 1.379 0 2.5 -1.121 2.5 -2.5 0 -1.105 -0.693 -2.046 -1.688 -2.375 -0.094 -0.027 -0.188 -0.04 -0.281 -0.063 -3.098 -0.756 -6.04 0.637 -8.469 2.5 -2.498 1.919 -4.76 4.493 -6.781 7.03 -0.331 0.416 -0.526 0.683 -0.844 1.094 1.062 -2.02 2.127 -4.065 2.656 -6.156 0.281 -1.11 0.43 -2.254 0.156 -3.5 -0.273 -1.246 -1.143 -2.54 -2.344 -3.25 l -0.031 -0.031 -0.031 0 c -0.805 -0.447 -1.634 -0.658 -2.469 -0.688 z" style="visibility:visible;fill:#000;opacity:0.1;fill-opacity:1;stroke:none;display:inline;color:#000"/>
 <g>
  <path d="m 40.03 7.531 c 3.712 4.084 5.969 9.514 5.969 15.469 0 12.703 -10.297 23 -23 23 c -5.954 0 -11.384 -2.256 -15.469 -5.969 4.178 4.291 10.01 6.969 16.469 6.969 c 12.703 0 23 -10.298 23 -23 0 -6.462 -2.677 -12.291 -6.969 -16.469 z" style="opacity:0.1"/>
 </g>
 <path d="m 21.719 11.06 c -0.278 -0.0001 -0.568 0.004 -0.844 0.031 c -1.103 0.109 -2.149 0.505 -3.063 1 c -1.828 0.991 -3.418 2.453 -4.719 4.094 c -1.3 1.64 -2.314 3.432 -2.813 5.281 c -0.249 0.925 -0.399 1.877 -0.188 2.938 c 0.172 0.865 0.707 1.807 1.469 2.469 c 0.121 0.105 0.242 0.192 0.375 0.281 c 0.057 0.038 0.097 0.09 0.156 0.125 l 0.031 -0.031 c 0.345 0.191 0.734 0.313 1.156 0.313 c 1.327 0 2.406 -1.079 2.406 -2.406 c -0.264 -0.558 -0.413 -1.166 -0.688 -1.719 c 0.005 0.026 -0.022 -0.26 0.094 -0.688 c 0.231 -0.855 0.972 -2.22 1.938 -3.438 c 0.965 -1.217 2.178 -2.314 3.156 -2.844 c 0.941 -0.51 1.32 -0.448 1.531 -0.344 c 0.023 0.124 0.038 0.543 -0.125 1.188 c -0.335 1.322 -1.308 3.351 -2.406 5.438 c -1.098 2.086 -2.313 4.248 -3.094 6.344 c -0.39 1.048 -0.686 2.066 -0.719 3.219 c -0.033 1.153 0.299 2.595 1.313 3.594 l 0.031 0.031 l 0.031 0.031 c 0.752 0.693 2.086 0.863 2.844 0.656 c 0.758 -0.207 1.194 -0.552 1.594 -0.875 c 0.799 -0.647 1.47 -1.386 2.219 -2.313 c 1.497 -1.853 3.243 -4.315 5.156 -6.719 c 1.914 -2.404 3.977 -4.729 5.875 -6.188 c 1.898 -1.458 3.339 -1.881 4.344 -1.594 c 0.181 0.041 0.369 0.063 0.563 0.063 c 1.379 0 2.5 -1.121 2.5 -2.5 c 0 -1.105 -0.693 -2.046 -1.688 -2.375 c -0.094 -0.027 -0.188 -0.04 -0.281 -0.063 c -3.098 -0.756 -6.04 0.637 -8.469 2.5 c -2.498 1.919 -4.76 4.493 -6.781 7.03 c -0.331 0.416 -0.526 0.683 -0.844 1.094 c 1.062 -2.02 2.127 -4.065 2.656 -6.156 c 0.281 -1.11 0.43 -2.254 0.156 -3.5 c -0.273 -1.246 -1.143 -2.54 -2.344 -3.25 l -0.031 -0.031 l -0.031 0 c -0.805 -0.447 -1.634 -0.658 -2.469 -0.688 z" style="visibility:visible;fill:#c6b09a;fill-opacity:1;stroke:none;display:inline;color:#000"/>
 <path d="m 21.03 13.09 c -0.761 0.08 -1.537 0.347 -2.281 0.75 -1.488 0.806 -2.927 2.123 -4.094 3.594 -1.166 1.471 -2.046 3.079 -2.438 4.531 -0.196 0.726 -0.281 1.436 -0.156 2.063 0.125 0.626 0.488 1.193 1.063 1.531 l 0.5 -0.875 c -0.327 -0.193 -0.481 -0.466 -0.563 -0.875 -0.081 -0.409 -0.044 -0.936 0.125 -1.563 0.338 -1.253 1.182 -2.801 2.281 -4.188 1.099 -1.387 2.432 -2.629 3.75 -3.344 1.306 -0.708 2.524 -0.871 3.5 -0.344 0.551 0.326 0.845 0.716 0.969 1.281 0.124 0.565 0.057 1.315 -0.156 2.156 -0.426 1.682 -1.453 3.766 -2.563 5.875 -1.11 2.109 -2.305 4.227 -3 6.094 -0.348 0.933 -0.571 1.798 -0.594 2.594 -0.023 0.796 0.169 1.552 0.719 2.094 l 0.031 0 0 0.031 c 0.256 0.236 0.661 0.272 0.969 0.188 0.307 -0.084 0.562 -0.24 0.844 -0.469 0.564 -0.457 1.192 -1.179 1.906 -2.063 c 1.428 -1.767 3.2 -4.23 5.156 -6.688 1.957 -2.457 4.081 -4.889 6.219 -6.531 2.138 -1.643 4.21 -2.476 6.094 -1.938 l 0.281 -0.969 c -2.323 -0.663 -4.711 0.359 -6.969 2.094 -2.258 1.735 -4.428 4.234 -6.406 6.719 -1.978 2.484 -3.763 4.963 -5.156 6.688 -0.697 0.862 -1.304 1.545 -1.75 1.906 -0.223 0.181 -0.418 0.259 -0.5 0.281 -0.304 -0.312 -0.455 -0.708 -0.438 -1.313 0.018 -0.618 0.205 -1.405 0.531 -2.281 0.652 -1.752 1.822 -3.849 2.938 -5.969 1.116 -2.12 2.185 -4.264 2.656 -6.125 0.236 -0.931 0.33 -1.802 0.156 -2.594 c -0.174 -0.792 -0.638 -1.483 -1.406 -1.938 l -0.031 0 c -0.685 -0.381 -1.426 -0.487 -2.188 -0.406 z" style="visibility:visible;fill:#fff;fill-opacity:1;stroke:none;display:inline;color:#000;fill-rule:nonzero"/>
</svg>
